X:53
T: Zhuai dasheng hao
N: C1551
O: China,Heilongjiang, Yichun
S: III, 84]
R: Haozi, Senglin haozi, Guileng haozi]
M: 4/4
L: 1/16
K: G
G6E2(3dBdBdB-B2z2 | e2d2-dBAGG2AEG2z2 | d2B2e2d2B2A2G4 |
B2B2F2A2B2B2A2z2 | A4B2A2d2B2A4 |
B2d2A2G2G2AEG2z2 | d2B2d2e2B2A2G4 |
B2B2F2A2^c2B2A2z2 | A4B2A2^c2B2A4 |
B2d2A2GGB2A2G2z2 | d2B2e2d2B2A2G4 |
B2B2B^cB2B6z2 | A4B2A2
B2G2G2E2G2z2 | d2B2A2G2
F2FFB2B2A2z2 | A4B2A2
B2BdB2A2G2z2 | d2B2A2G2
A2AGE2G2A2z2 | A4B2d2
A2G2B2AGG2z2 | d2B2A2G2
E2GGB2d2A2z2 | A4B2A2
A2G2B2A2G2z2 | d2B2A2G2G8 |
B6BBB2AAA2B2A2z2 | A4B2A2^c2B2A4 |
B2d2A2GGB2A2G2z2 | d2B2d2e2B2A2G4 |
B2d2E2G2B2B2A2z2 | A4B2A2d2B2A4 |
z2ddA2GGD2E2G4 | d2B2e2d2B2A2G4

@@@ Tune index: 6608
